packages/ffe-icons/icons/open/400/sm/screenshot_frame.svg

<svg xmlns="http://www.w3.org/2000/svg" height="20" viewBox="0 -960 960 960" width="20"><path d="M228.211-672Q213-672 202.5-682.35 192-692.7 192-708v-84q0-29.7 21.15-50.85Q234.3-864 264-864h84q15.3 0 25.65 10.289 10.35 10.29 10.35 25.5Q384-813 373.65-802.5 363.3-792 348-792h-84v84q0 15.3-10.289 25.65-10.29 10.35-25.5 10.35ZM264-96q-29.7 0-50.85-21.15Q192-138.3 192-168v-84q0-15.3 10.289-25.65 10.29-10.35 25.5-10.35Q243-288 253.5-277.65 264-267.3 264-252v84h84q15.3 0 25.65 10.289 10.35 10.29 10.35 25.5Q384-117 373.65-106.5 363.3-96 348-96h-84Zm468.211-576Q717-672 706.5-682.35 696-692.7 696-708v-84h-84q-15.3 0-25.65-10.289-10.35-10.29-10.35-25.5Q576-843 586.35-853.5 596.7-864 612-864h84q29.7 0 50.85 21.15Q768-821.7 768-792v84q0 15.3-10.289 25.65-10.29 10.35-25.5 10.35ZM612-96q-15.3 0-25.65-10.289-10.35-10.29-10.35-25.5Q576-147 586.35-157.5 596.7-168 612-168h84v-84q0-15.3 10.289-25.65 10.29-10.35 25.5-10.35Q747-288 757.5-277.65 768-267.3 768-252v84q0 29.7-21.15 50.85Q725.7-96 696-96h-84Z"/></svg>

<svg xmlns="http://www.w3.org/2000/svg" height="20" viewBox="0 -960 960 960" width="20"><path d="M228.21-672q-15.21 0-25.71-10.35T192-708v-84q0-29.7 21.15-50.85Q234.3-864 264-864h84q15.3 0 25.65 10.29Q384-843.42 384-828.21t-10.35 25.71Q363.3-792 348-792h-84v84q0 15.3-10.29 25.65Q243.42-672 228.21-672ZM264-96q-29.7 0-50.85-21.15Q192-138.3 192-168v-84q0-15.3 10.29-25.65Q212.58-288 227.79-288t25.71 10.35Q264-267.3 264-252v84h84q15.3 0 25.65 10.29Q384-147.42 384-132.21t-10.35 25.71Q363.3-96 348-96h-84Zm468.21-576q-15.21 0-25.71-10.35T696-708v-84h-84q-15.3 0-25.65-10.29Q576-812.58 576-827.79t10.35-25.71Q596.7-864 612-864h84q29.7 0 50.85 21.15Q768-821.7 768-792v84q0 15.3-10.29 25.65Q747.42-672 732.21-672ZM612-96q-15.3 0-25.65-10.29Q576-116.58 576-131.79t10.35-25.71Q596.7-168 612-168h84v-84q0-15.3 10.29-25.65Q716.58-288 731.79-288t25.71 10.35Q768-267.3 768-252v84q0 29.7-21.15 50.85Q725.7-96 696-96h-84Z"/></svg>
